static/assets/template/assets/img/svg/shapes/wave-4.svg

<svg height="720" viewBox="0 0 1600 720" width="1600" xmlns="http://www.w3.org/2000/svg" xmlns:xlink="http://www.w3.org/1999/xlink"><defs><path id="a" d="m114.960237 0h1503.079523s258.88094 418.271277 0 506.271277c-258.88093 88-329.03976-.271277-501.02651 37.787234-171.986741 38.05851-242.684711 181.787234-501.026504 117.787234-258.341794-64-242.663449 165.787234-501.026509 165.787234s0-827.632979 0-827.632979z"/><mask id="b" fill="#fff"><use fill="#fff" fill-rule="evenodd" xlink:href="#a"/></mask></defs><g fill="none" fill-rule="evenodd" transform="translate(-78 -108)"><path d="m114.960237 16 1503.079523-16s226.88094 290.271277 40 442.271277c-186.88093 152-282.68471-10.212766-541.02651 77.787234-258.341789 88-242.684711 221.787234-501.026504 181.787234-258.341794-40-242.663449 125.787234-501.026509 125.787234s0-811.632979 0-811.632979z" opacity=".2"/><use xlink:href="#a"/><g mask="url(#b)" opacity=".7"><g transform="translate(-660.065 -775.149)"><path d="m754.067729 531.446809-182.22916 444.012714c-25.237635 61.486137-85.236993 101.651337-151.851635 101.651337h-337.7872724l182.2351574-444.00673c25.237635-61.492121 85.236993-101.657321 151.845637-101.657321z" fill="#94c5ff" opacity=".06"/><path d="m1922.70825 0-400.26346 975.266913c-55.43407 135.053327-187.22171 223.275557-333.53972 223.275557l-1188.90507.14902 400.276643-975.253773c55.434067-135.0664719 187.22171-223.28870084 333.526545-223.28870084z" fill="#94c5ff" opacity=".06"/><path d="m2566.38343 880.016429-225.3369 549.047401c-31.20779 76.03117-105.40047 125.69776-187.77333 125.69776l-1522.2732-.01643 225.344311-549.04c31.207795-76.038566 105.400472-125.70516 187.765909-125.70516z" fill="#1a32af" fill-opacity=".4" opacity=".31"/><g fill="#0092ff" fill-opacity=".2"><path d="m2632.59095 606.319149-135.36139 329.81646c-18.74673 45.672432-63.31477 75.507491-112.7967 75.507491h-628.88294l135.36584-329.812019c18.74673-45.676876 63.31477-75.511932 112.79224-75.511932z" opacity=".7"/><path d="m2512.22716 1249.34043-135.36139 329.81646c-18.74673 45.67243-63.31477 75.50748-112.7967 75.50748h-1949.948935l135.365841-329.81201c18.746732-45.67688 63.314771-75.51193 112.792245-75.51193z" opacity=".4"/></g></g></g><path d="m114.960237 16 1503.079523-16s329.96024 228 39.96024 352-309 244-492.5 283.5-339.158206-120-549.5 24-242.676703 128.132979-501.039763 104.132979 0-747.632979 0-747.632979z" fill="#05f" opacity=".1"/></g></svg>

<svg xmlns="http://www.w3.org/2000/svg" xmlns:xlink="http://www.w3.org/1999/xlink" width="1600" height="720" viewBox="0 0 1600 720">
    <defs>
        <linearGradient id="a" x1="50%" x2="50%" y1="0%" y2="100%">
            <stop offset="0%" stop-color="#1D58F5"/>
            <stop offset="100%" stop-color="#3B90F7"/>
        </linearGradient>
        <path
            id="b"
            d="M114.960237,0 L1618.03976,0 C1618.03976,0 1876.9207,418.271277 1618.03976,506.271277 C1359.15883,594.271277 1289,506 1117.01325,544.058511 C945.026509,582.117021 874.328539,725.845745 615.986746,661.845745 C357.644952,597.845745 373.323297,827.632979 114.960237,827.632979 C-143.402823,827.632979 114.960237,0 114.960237,0 Z"/>
    </defs>
    <g fill="none" fill-rule="evenodd" transform="translate(-78 -108)">
        <path
            class="fill-primary"
            d="M114.960237,16 L1618.03976,0 C1618.03976,0 1844.9207,290.271277 1658.03976,442.271277 C1471.15883,594.271277 1375.35505,432.058511 1117.01325,520.058511 C858.671461,608.058511 874.328539,741.845745 615.986746,701.845745 C357.644952,661.845745 373.323297,827.632979 114.960237,827.632979 C-143.402823,827.632979 114.960237,16 114.960237,16 Z"
            opacity=".2"/>
        <mask id="c" fill="white">
            <use xlink:href="#b"/>
        </mask>
        <use class="fill-primary" xlink:href="#b"/>
        <g mask="url(#c)" opacity=".7">
            <g transform="translate(-660.065 -775.149)">
                <path
                    fill="#94C5FF"
                    d="M754.067729,531.446809 L571.838569,975.459523 C546.600934,1036.94566 486.601576,1077.11086 419.986934,1077.11086 L82.1996616,1077.11086 L264.434819,633.10413 C289.672454,571.612009 349.671812,531.446809 416.280456,531.446809 L754.067729,531.446809 Z"
                    opacity=".06"/>
                <path
                    fill="#94C5FF"
                    d="M1922.70825,0 L1522.44479,975.266913 C1467.01072,1110.32024 1335.22308,1198.54247 1188.90507,1198.54247 L0,1198.69149 L400.276643,223.437717 C455.71071,88.3712451 587.498353,0.149016157 733.803188,0.149016157 L1922.70825,0 Z"
                    opacity=".06"/>
                <path
                    fill="#1A32AF"
                    fill-opacity=".4"
                    d="M2566.38343,880.016429 L2341.04653,1429.06383 C2309.83874,1505.095 2235.64606,1554.76159 2153.2732,1554.76159 L631,1554.74516 L856.344311,1005.70516 C887.552106,929.666594 961.744783,880 1044.11022,880 L2566.38343,880.016429 Z"
                    opacity=".31"/>
                <path
                    fill="#0092FF"
                    fill-opacity=".2"
                    d="M2632.59095,606.319149 L2497.22956,936.135609 C2478.48283,981.808041 2433.91479,1011.6431 2384.43286,1011.6431 L1755.54992,1011.6431 L1890.91576,681.831081 C1909.66249,636.154205 1954.23053,606.319149 2003.708,606.319149 L2632.59095,606.319149 Z"
                    opacity=".7"/>
                <path
                    fill="#0092FF"
                    fill-opacity=".2"
                    d="M2512.22716,1249.34043 L2376.86577,1579.15689 C2358.11904,1624.82932 2313.551,1654.66437 2264.06907,1654.66437 L314.120135,1654.66437 L449.485976,1324.85236 C468.232708,1279.17548 512.800747,1249.34043 562.278221,1249.34043 L2512.22716,1249.34043 Z"
                    opacity=".4"/>
            </g>
        </g>
        <path
            fill="#0055FF"
            d="M114.960237,16 L1618.03976,0 C1618.03976,0 1948,228 1658,352 C1368,476 1349,596 1165.5,635.5 C982,675 826.341794,515.5 616,659.5 C405.658206,803.5 373.323297,787.632979 114.960237,763.632979 C-143.402823,739.632979 114.960237,16 114.960237,16 Z"
            opacity=".1"/>
    </g>
</svg>
